twotone/svg/adb.svg

<svg xmlns="http://www.w3.org/2000/svg" width="24" height="24"><path fill="none" d="M0 0h24v24H0V0z"/><g fill="currentColor"><path d="M5 16c0 3.87 3.13 7 7 7s7-3.13 7-7v-4H5v4zM16.12 4.37l2.1-2.1-.82-.83-2.3 2.31C14.16 3.28 13.12 3 12 3s-2.16.28-3.09.75L6.6 1.44l-.82.83 2.1 2.1C6.14 5.64 5 7.68 5 10v1h14v-1c0-2.32-1.14-4.36-2.88-5.63zM9 9c-.55 0-1-.45-1-1s.45-1 1-1 1 .45 1 1-.45 1-1 1zm6 0c-.55 0-1-.45-1-1s.45-1 1-1 1 .45 1 1-.45 1-1 1z"/></g></svg>

<?xml version="1.0" encoding="utf-8"?>
<!-- Generator: Adobe Illustrator 19.1.0, SVG Export Plug-In . SVG Version: 6.00 Build 0)  -->
<svg version="1.1" xmlns="http://www.w3.org/2000/svg" xmlns:xlink="http://www.w3.org/1999/xlink" x="0px" y="0px" width="24px"
	 height="24px" viewBox="0 0 24 24" enable-background="new 0 0 24 24" xml:space="preserve">
<g id="Bounding_Boxes">
	<g id="ui_x5F_spec_x5F_header_copy_2">
	</g>
	<path fill="none" d="M0,0h24v24H0V0z"/>
</g>
<g id="Duotone" fill="currentColor">
	<g id="ui_x5F_spec_x5F_header_copy">
	</g>
	<path d="M5,16c0,3.87,3.13,7,7,7s7-3.13,7-7v-4H5V16z M16.12,4.37l2.1-2.1L17.4,1.44l-2.3,2.31C14.16,3.28,13.12,3,12,3
		S9.84,3.28,8.91,3.75L6.6,1.44L5.78,2.27l2.1,2.1C6.14,5.64,5,7.68,5,10v1h14v-1C19,7.68,17.86,5.64,16.12,4.37z M9,9
		C8.45,9,8,8.55,8,8s0.45-1,1-1s1,0.45,1,1S9.55,9,9,9z M15,9c-0.55,0-1-0.45-1-1s0.45-1,1-1s1,0.45,1,1S15.55,9,15,9z"/>
</g>
</svg>
